img/icons/link-icon.svg

<svg width="15" height="15" viewBox="0 0 15 15" fill="none" xmlns="http://www.w3.org/2000/svg">
<g clip-path="url(#clip0_3188_3762)">
<path d="M13.9695 1.02973C12.5966 -0.343238 10.3707 -0.343238 8.99768 1.0297L6.05938 3.968C4.63922 5.38823 4.7707 7.65112 6.05938 8.93986C6.27518 9.15566 6.51395 9.33161 6.76608 9.47614L7.30236 8.93986C7.6541 8.58806 7.53029 8.17682 7.52396 7.88007C7.44677 7.82535 7.37168 7.76619 7.30236 7.69688C6.64104 7.03562 6.61131 5.90201 7.30236 5.21095C7.40499 5.10832 10.1783 2.33499 10.2406 2.27271C10.9261 1.58719 12.041 1.58719 12.7265 2.27271C13.412 2.95823 13.412 4.07312 12.7265 4.75864L10.7844 6.70081C10.8405 7.01157 11.1776 7.74768 11.0042 8.96198C11.0127 8.95366 11.0228 8.94829 11.0312 8.93989L13.9695 6.00159C15.3424 4.62862 15.3424 2.4027 13.9695 1.02973Z" fill="black"/>
<path d="M9.16751 5.83267C8.95173 5.61687 8.71294 5.44091 8.46087 5.29639L7.92459 5.83267C7.57279 6.1844 7.6966 6.59564 7.70293 6.89239C7.78018 6.94712 7.85527 7.00627 7.92459 7.07559C8.5859 7.7369 8.61564 8.87046 7.92459 9.56151C7.82172 9.66438 4.81868 12.6674 4.75859 12.7275C4.07307 13.413 2.95818 13.413 2.27266 12.7275C1.58714 12.042 1.58714 10.9271 2.27266 10.2416L4.44259 8.07165C4.38643 7.7609 4.04934 7.02479 4.22275 5.81049C4.21428 5.81881 4.20409 5.82423 4.19565 5.83264L1.02968 8.99866C-0.343228 10.3716 -0.343228 12.5975 1.02968 13.9705C2.40265 15.3434 4.62854 15.3434 6.00151 13.9705L9.16751 10.8045C10.5613 9.41069 10.4852 7.15029 9.16751 5.83267Z" fill="black"/>
</g>
<defs>
<clipPath id="clip0_3188_3762">
<rect width="15" height="15" fill="white"/>
</clipPath>
</defs>
</svg>

<svg width="15" height="15" fill="none" xmlns="http://www.w3.org/2000/svg"><g clip-path="url(#clip0_3188_3762)" fill="#000"><path d="M13.97 1.03a3.516 3.516 0 00-4.972 0L6.059 3.968c-1.42 1.42-1.288 3.683 0 4.972.216.216.455.392.707.536l.536-.536c.352-.352.228-.763.222-1.06a1.698 1.698 0 01-.222-.183c-.661-.661-.69-1.795 0-2.486l2.939-2.938a1.76 1.76 0 012.486 0 1.76 1.76 0 010 2.486L10.784 6.7c.056.31.394 1.047.22 2.261.009-.008.019-.014.027-.022l2.938-2.938a3.516 3.516 0 000-4.972z"/><path d="M9.168 5.833a3.347 3.347 0 00-.707-.537l-.536.537c-.352.351-.228.763-.222 1.06.077.054.152.113.222.183.66.66.69 1.794 0 2.486l-3.166 3.165a1.76 1.76 0 01-2.486 0 1.76 1.76 0 010-2.485l2.17-2.17c-.057-.311-.394-1.047-.22-2.262-.009.009-.019.014-.027.023L1.03 8.999a3.516 3.516 0 004.972 4.971l3.166-3.165c1.393-1.394 1.317-3.655 0-4.972z"/></g><defs><clipPath id="clip0_3188_3762"><path fill="#fff" d="M0 0h15v15H0z"/></clipPath></defs></svg>
